assets/img/components/icon-header.svg

<svg width="573" height="145" viewBox="0 0 573 145" fill="none" xmlns="http://www.w3.org/2000/svg">
<path d="M144 0C224.021 0 288.89 64.9062 288.89 144.972L289 145H144V0Z" fill="#286AD8"/>
<path d="M72.5 145C112.541 145 145 112.541 145 72.5C145 32.4594 112.541 0 72.5 0C32.4593 0 0 32.4594 0 72.5C0 112.541 32.4593 145 72.5 145Z" fill="#286AD8"/>
<path d="M323.875 0C301.853 0 284 17.8525 284 39.8751V145H429V0H323.875Z" fill="#286AD8"/>
<path d="M533.125 145H428C428 64.9187 492.919 0 573 0V105.125C573 127.147 555.147 145 533.125 145Z" fill="#286AD8"/>
<g style="mix-blend-mode:multiply" opacity="0.4">
<path d="M76.3984 49.042C77.2293 48.9205 78.0298 49.0626 78.7998 49.4678C79.2851 49.7232 79.676 50.0504 79.9922 50.4346L134.76 109.666C125.517 125.116 110.689 136.837 93.0625 142.041L46.4287 94.7861C45.4765 93.8337 45.001 92.6889 45.001 91.3516V69.4678C45.001 68.1306 45.4766 66.9854 46.4287 66.0332C47.381 65.0809 48.5261 64.6046 49.8633 64.6045C51.2006 64.6045 52.3455 65.0808 53.2979 66.0332L59.5898 72.3359V66.6104C59.5898 65.962 59.7219 65.3435 59.9854 64.7559C60.2487 64.1684 60.6031 63.6517 61.0488 63.2061L74.2402 50.0752C74.8481 49.508 75.5677 49.1635 76.3984 49.042Z" fill="#1545BB"/>
</g>
<path d="M91.1429 64.5332C92.4381 64.5332 93.5715 65.0174 94.5429 65.9856C95.5143 66.9538 96 68.0833 96 69.3743V74.2153C96 74.4978 95.9696 74.8004 95.9089 75.123C95.8482 75.4457 95.7572 75.7482 95.6357 76.0307L88.35 93.0954C87.9857 93.9021 87.3786 94.5882 86.5286 95.1528C85.6786 95.7175 84.7881 96 83.8571 96H64.4286C63.0928 96 61.9494 95.5261 60.9982 94.578C60.047 93.6298 59.5715 92.4903 59.5715 91.159V66.5302C59.5715 65.8847 59.703 65.2695 59.9661 64.6845C60.2291 64.0996 60.5833 63.5852 61.0286 63.1415L74.2036 50.0706C74.8107 49.5058 75.5291 49.1629 76.3589 49.0419C77.1888 48.9209 77.988 49.0621 78.7572 49.4655C79.5263 49.8689 80.0826 50.4337 80.4268 51.1599C80.7709 51.886 80.8416 52.6323 80.6393 53.3988L77.9071 64.5332H91.1429ZM49.8571 96C48.5214 96 47.378 95.5261 46.4268 94.578C45.4756 93.6298 45 92.4903 45 91.159V69.3743C45 68.043 45.4756 66.9033 46.4268 65.9553C47.378 65.0073 48.5214 64.5332 49.8571 64.5332C51.1929 64.5332 52.3363 65.0073 53.2875 65.9553C54.2387 66.9033 54.7143 68.043 54.7143 69.3743V91.159C54.7143 92.4903 54.2387 93.6298 53.2875 94.578C52.3363 95.5261 51.1929 96 49.8571 96Z" fill="#5187DF"/>
</svg>

<svg xmlns="http://www.w3.org/2000/svg" width="573" height="145" fill="none" viewBox="0 0 573 145"><path fill="#286ad8" d="M144 0c80.021 0 144.89 64.906 144.89 144.972l.11.028H144z"/><path fill="#286ad8" d="M72.5 145c40.041 0 72.5-32.459 72.5-72.5S112.541 0 72.5 0 0 32.46 0 72.5 32.46 145 72.5 145M323.875 0C301.853 0 284 17.853 284 39.875V145h145V0z"/><path fill="#286ad8" d="M533.125 145H428C428 64.919 492.919 0 573 0v105.125C573 127.147 555.147 145 533.125 145"/><path fill="#1545bb" d="M76.398 49.042q1.247-.183 2.402.426a3.8 3.8 0 0 1 1.192.967l54.768 59.231c-9.243 15.45-24.071 27.171-41.697 32.375L46.429 94.786Q45 93.358 45 91.352V69.468q0-2.006 1.428-3.435 1.428-1.428 3.434-1.428t3.435 1.428l6.292 6.303V66.61q0-.972.395-1.854a5.2 5.2 0 0 1 1.064-1.55l13.191-13.13a3.92 3.92 0 0 1 2.158-1.034" opacity=".4" style="mix-blend-mode:multiply"/><path fill="#5187df" d="M91.143 64.533q1.942 0 3.4 1.453Q96 67.438 96 69.374v4.841q0 .424-.091.908-.09.484-.273.908L88.35 93.095q-.546 1.21-1.821 2.058-1.274.846-2.672.847H64.43q-2.004 0-3.43-1.422-1.428-1.422-1.428-3.419V66.53q0-.967.395-1.846.394-.877 1.063-1.542L74.204 50.07a3.92 3.92 0 0 1 2.155-1.03 3.85 3.85 0 0 1 2.398.425q1.154.605 1.67 1.694a3.18 3.18 0 0 1 .212 2.239l-2.732 11.134zM49.857 96q-2.004 0-3.43-1.422T45 91.159V69.374q0-1.996 1.427-3.419 1.426-1.422 3.43-1.422t3.43 1.422q1.428 1.422 1.427 3.42v21.784q0 1.996-1.426 3.419Q51.86 96 49.858 96"/></svg>
